X:1
T:La Marianne
M:3/4
L:1/8
K:G
G2B2G2|d6|c2e2c2|B4A2|G2B2G2|d6|c2e2c2|A6|
G2B2G2|d6|c2e2c2|B4A2|G2B2G2|d6|c2e2c2|d6||
c2ecAc|B2dBGB|A2cAFA|G2BGBd|
c2ecAc|B2dBGB|A2cAFA|G6:||
